X:0780
T:Cameron has got his Wife again.
T:A Strathspey.
M:C
L:1/8
Q:1/4=120
I: :: ||
Z:Jack Campin * www.campin.me.uk * 2009
K:D
B|d>BAF  A/A/A AB |d>BAF  E/E/E Ec | d>BAF        Agf>e |dBAF D/D/D D:|
g|f<df<a e<g``Tf>e|fdfa   B/B/B Bf |(d/e/f/g/) af e>def |dBAF D/D/D Dg|
  f<df<a e<g``Tf>e|f<df<a B/B/B B>g| f<da<f       e<gf>e|dBAF D/D/D D|]

